X:1
T:Te álomszuszék ébredj
C:Hungarian song
Z:Public Domain
L:1/8
M:2/4
K:C
V:1 treble nm="Voice"
%%MIDI program 52
V:1
 G,C EC | E C2 C | ED CD | E C3 | G G2 E | c c2 G | GF EF | G E3 | GE z2 | GE z2 | GG, z2 | %11
w: Te á- lom- szu-|szék éb- redj,|ha- sad- ra süt|a nap!|Nem hal- lod,|nem hal- lod|a víg ka- kuk-|ko- kat?|Ka- kukk,|szól már|a fák|
 G C2 z |] %12
w: a- latt.-|

